packages/symbols/svgs/duotone/signal-stream-duotone.svg

<svg width="24" height="24" viewBox="0 0 24 24" fill="none" xmlns="http://www.w3.org/2000/svg">
<g clip-path="url(#clip0_1068_7744)">
<path fill-rule="evenodd" clip-rule="evenodd" d="M16.7929 7.69289C17.1834 7.30236 17.8166 7.30236 18.2071 7.69289C20.5976 10.0834 20.5976 13.8166 18.2071 16.2071C17.8166 16.5976 17.1834 16.5976 16.7929 16.2071C16.4024 15.8166 16.4024 15.1834 16.7929 14.7929C18.4024 13.1834 18.4024 10.7166 16.7929 9.1071C16.4024 8.71658 16.4024 8.08341 16.7929 7.69289Z" fill="black"/>
<path fill-rule="evenodd" clip-rule="evenodd" d="M19.6928 4.99291C20.0833 4.60238 20.7165 4.60238 21.107 4.99291C24.9975 8.88343 24.9975 15.2166 21.107 19.1071C20.7165 19.4976 20.0833 19.4976 19.6928 19.1071C19.3023 18.7166 19.3023 18.0834 19.6928 17.6929C22.8023 14.5834 22.8023 9.51659 19.6928 6.40712C19.3023 6.01659 19.3023 5.38343 19.6928 4.99291Z" fill="black"/>
<path fill-rule="evenodd" clip-rule="evenodd" d="M7.20711 7.69289C7.59763 8.08341 7.59763 8.71658 7.20711 9.1071C5.59763 10.7166 5.59763 13.1834 7.20711 14.7929C7.59763 15.1834 7.59763 15.8166 7.20711 16.2071C6.81658 16.5976 6.18342 16.5976 5.79289 16.2071C3.40237 13.8166 3.40237 10.0834 5.79289 7.69289C6.18342 7.30236 6.81658 7.30236 7.20711 7.69289Z" fill="black"/>
<path fill-rule="evenodd" clip-rule="evenodd" d="M4.3072 4.99291C4.69773 5.38343 4.69773 6.01659 4.3072 6.40712C1.19773 9.51659 1.19773 14.5834 4.3072 17.6929C4.69773 18.0834 4.69773 18.7166 4.3072 19.1071C3.91668 19.4976 3.28352 19.4976 2.89299 19.1071C-0.997533 15.2166 -0.997533 8.88343 2.89299 4.99291C3.28352 4.60238 3.91668 4.60238 4.3072 4.99291Z" fill="black"/>
<path opacity="0.5" fill-rule="evenodd" clip-rule="evenodd" d="M12 11C11.4477 11 11 11.4477 11 12C11 12.5523 11.4477 13 12 13C12.5523 13 13 12.5523 13 12C13 11.4477 12.5523 11 12 11ZM9 12C9 10.3431 10.3431 9 12 9C13.6569 9 15 10.3431 15 12C15 13.6569 13.6569 15 12 15C10.3431 15 9 13.6569 9 12Z" fill="black"/>
</g>
<defs>
<clipPath id="clip0_1068_7744">
<rect width="24" height="24" fill="white"/>
</clipPath>
</defs>
</svg>

<svg width="24" height="24" viewBox="0 0 24 24" xmlns="http://www.w3.org/2000/svg"><g clip-path="url(#a)" fill-rule="evenodd" clip-rule="evenodd"><path d="M16.793 7.693a1 1 0 0 1 1.414 0c2.39 2.39 2.39 6.124 0 8.514a1 1 0 0 1-1.414-1.414c1.61-1.61 1.61-4.076 0-5.686a1 1 0 0 1 0-1.414Z"/><path d="M19.693 4.993a1 1 0 0 1 1.414 0c3.89 3.89 3.89 10.224 0 14.114a1 1 0 0 1-1.414-1.414c3.11-3.11 3.11-8.176 0-11.286a1 1 0 0 1 0-1.414Zm-12.486 2.7a1 1 0 0 1 0 1.414c-1.61 1.61-1.61 4.076 0 5.686a1 1 0 1 1-1.414 1.414c-2.39-2.39-2.39-6.124 0-8.514a1 1 0 0 1 1.414 0Z"/><path d="M4.307 4.993a1 1 0 0 1 0 1.414c-3.11 3.11-3.11 8.176 0 11.286a1 1 0 1 1-1.414 1.414c-3.89-3.89-3.89-10.224 0-14.114a1 1 0 0 1 1.414 0Z"/><path opacity=".5" d="M12 11a1 1 0 1 0 0 2 1 1 0 0 0 0-2Zm-3 1a3 3 0 1 1 6 0 3 3 0 0 1-6 0Z"/></g><defs><clipPath id="a"><path fill="#fff" d="M0 0h24v24H0z"/></clipPath></defs></svg>
